X: 100b
T: Andy Irvine's Polka
M:2/4
L:1/8
R:Polka
K:G
"G"D>E DB,|DE G>A|Bd "D"AB/2A/2|"C"GE cE|
"G"D>E DB,|DE G>A|Bd "D"AB/2A/2|1"G"G2 GE:|2"G"G2 G>A||
"G"Bd d>B|"C"ce e>d|"G"Bd "D"AB/2A/2|"C"GE cE|
"G"Bd d>B|"C"ce e>f|"(Em)"ge "D"fd|"C"e2 ef|
"em(C)"ge "D"fd|"C"ed "G"B>A|Bd "D"AB/2A/2|"C"GE cE|
"G"D>E DB,|DE G>A|Bd "D"AB/2A/2|"G"G2 GE|]


